icons/svg/subway/subway_yokohama_minatomirai.svg

<?xml version="1.0" encoding="UTF-8" standalone="no"?>
<svg
   xmlns:dc="http://purl.org/dc/elements/1.1/"
   xmlns:cc="http://creativecommons.org/ns#"
   xmlns:rdf="http://www.w3.org/1999/02/22-rdf-syntax-ns#"
   xmlns:svg="http://www.w3.org/2000/svg"
   xmlns="http://www.w3.org/2000/svg"
   xmlns:sodipodi="http://sodipodi.sourceforge.net/DTD/sodipodi-0.dtd"
   xmlns:inkscape="http://www.inkscape.org/namespaces/inkscape"
   width="16"
   height="16"
   id="svg2"
   version="1.1"
   inkscape:version="0.91 r13725"
   sodipodi:docname="subway_yokohama_minatomirai.svg">
  <defs
     id="defs13">
    <linearGradient
       gradientTransform="matrix(0.08596979,0,0,0.08596979,0.67480439,1.9432845)"
       x1="87.101639"
       y1="121.69753"
       x2="87.260849"
       y2="1.2385538"
       id="l1"
       gradientUnits="userSpaceOnUse">
      <stop
         style="stop-color:#e92203;stop-opacity:1"
         offset="0"
         id="stop5" />
      <stop
         style="stop-color:#ff0000;stop-opacity:0.64628822"
         offset="1"
         id="stop7" />
    </linearGradient>
    <linearGradient
       gradientTransform="matrix(0.08400469,0,0,0.08400469,0.8422306,2.0814238)"
       x1="87.101639"
       y1="121.69753"
       x2="87.260849"
       y2="1.2385538"
       id="l1-2"
       gradientUnits="userSpaceOnUse">
      <stop
         style="stop-color:#e92203;stop-opacity:1"
         offset="0"
         id="stop5-8" />
      <stop
         style="stop-color:#ff0000;stop-opacity:0.64628822"
         offset="1"
         id="stop7-4" />
    </linearGradient>
    <clipPath
       style="clip-rule:evenodd"
       id="clip">
      <path
         inkscape:connector-curvature="0"
         d="m 0,62 142,0 0,1 a 19,17 0 0 1 19,17 l 0,144 -36,0 0,-144 A 45,43 0 0 0 80,37 l 0,26 a 19,17 0 0 1 19,17 l 0,144 -37,0 0,-144 A 45,43 0 0 0 17,37 l 0,26 a 19,17 0 0 1 19,17 l 0,144 -36,0"
         id="path9" />
    </clipPath>
    <clipPath
       style="clip-rule:evenodd"
       id="clip-3">
      <path
         inkscape:connector-curvature="0"
         d="m 0,62 142,0 0,1 c 10.49341,0 19,7.611159 19,17 l 0,144 -36,0 0,-144 C 125,56.251756 104.85281,37 80,37 l 0,26 c 10.49341,0 19,7.611159 19,17 l 0,144 -37,0 0,-144 C 62,56.251756 41.852814,37 17,37 l -19.4659076,6.047445 c 10.4934102,0 39.5295186,70.389145 39.4392026,79.777555 L 36,224 0,224"
         id="path9-6"
         sodipodi:nodetypes="cccsccsccsccsccscc" />
    </clipPath>
    <clipPath
       clipPathUnits="userSpaceOnUse"
       id="clipPath4241">
      <path
         style="color:#000000;font-style:normal;font-variant:normal;font-weight:normal;font-stretch:normal;font-size:medium;line-height:normal;font-family:sans-serif;text-indent:0;text-align:start;text-decoration:none;text-decoration-line:none;text-decoration-style:solid;text-decoration-color:#000000;letter-spacing:normal;word-spacing:normal;text-transform:none;direction:ltr;block-progression:tb;writing-mode:lr-tb;baseline-shift:baseline;text-anchor:start;white-space:normal;clip-rule:nonzero;display:inline;overflow:visible;visibility:visible;opacity:1;isolation:auto;mix-blend-mode:normal;color-interpolation:sRGB;color-interpolation-filters:linearRGB;solid-color:#000000;solid-opacity:1;fill:#f78f1e;fill-opacity:1;fill-rule:nonzero;stroke:none;stroke-width:1.1890316;stroke-linecap:butt;stroke-linejoin:miter;stroke-miterlimit:4;stroke-dasharray:none;stroke-dashoffset:0;stroke-opacity:1;color-rendering:auto;image-rendering:auto;shape-rendering:auto;text-rendering:auto;enable-background:accumulate"
         d="m 14.951172,5.6171875 0,1.1894531 1.189724,4.0473644 c 0.22222,0.755979 1.557608,-1.2390936 2.119845,-0.687028 l -1.216421,3.99855 5.104118,-1.349121 -2.897294,-5.4803727 C 18.582537,6.0713293 20.39326,2.308458 19.17089,3.0516451 Z"
         id="path4243"
         inkscape:connector-curvature="0"
         sodipodi:nodetypes="ccssccssc" />
    </clipPath>
    <clipPath
       style="clip-rule:evenodd"
       id="clip-5">
      <path
         inkscape:connector-curvature="0"
         d="m 0,62 142,0 0,1 a 19,17 0 0 1 19,17 l 0,144 -36,0 0,-144 A 45,43 0 0 0 80,37 l 0,26 a 19,17 0 0 1 19,17 l 0,144 -37,0 0,-144 A 45,43 0 0 0 17,37 l 0,26 a 19,17 0 0 1 19,17 l 0,144 -36,0"
         id="path9-62" />
    </clipPath>
  </defs>
  <sodipodi:namedview
     pagecolor="#ffffff"
     bordercolor="#666666"
     borderopacity="1"
     objecttolerance="10"
     gridtolerance="10"
     guidetolerance="10"
     inkscape:pageopacity="0"
     inkscape:pageshadow="2"
     inkscape:window-width="1920"
     inkscape:window-height="1006"
     id="namedview11"
     showgrid="true"
     inkscape:zoom="45.21461"
     inkscape:cx="6.3890183"
     inkscape:cy="8.4976753"
     inkscape:window-x="1920"
     inkscape:window-y="0"
     inkscape:window-maximized="1"
     inkscape:current-layer="svg2"
     showguides="false"
     inkscape:snap-global="false">
    <sodipodi:guide
       position="0,0"
       orientation="0,580"
       id="guide2989" />
    <sodipodi:guide
       position="580,0"
       orientation="-580,0"
       id="guide2991" />
    <sodipodi:guide
       position="580,580"
       orientation="0,-580"
       id="guide2993" />
    <sodipodi:guide
       position="0,580"
       orientation="580,0"
       id="guide2995" />
    <sodipodi:guide
       position="0,0"
       orientation="0,580"
       id="guide2997" />
    <sodipodi:guide
       position="580,0"
       orientation="-580,0"
       id="guide2999" />
    <sodipodi:guide
       position="580,580"
       orientation="0,-580"
       id="guide3001" />
    <sodipodi:guide
       position="0,580"
       orientation="580,0"
       id="guide3003" />
    <inkscape:grid
       type="xygrid"
       id="grid3013"
       empspacing="5"
       visible="true"
       enabled="true"
       snapvisiblegridlinesonly="true" />
  </sodipodi:namedview>
  <metadata
     id="metadata2975">image/svg+xmlen<rdf:RDF>
  <cc:Work
     rdf:about="">
    <dc:format>image/svg+xml</dc:format>
    <dc:type
       rdf:resource="http://purl.org/dc/dcmitype/StillImage" />
    <dc:title></dc:title>
  </cc:Work>
</rdf:RDF>
</metadata>
  <path
     style="opacity:1;fill:#fefefe;fill-opacity:1;fill-rule:evenodd;stroke:none;stroke-width:1px;stroke-linecap:butt;stroke-linejoin:miter;stroke-opacity:1"
     d="M 4.9492188,4.234375 C 4.5851472,4.2340616 4.2782221,4.5057658 4.234375,4.8671875 L 4.0097656,6.7285156 C 3.4693788,6.8698934 2.859375,7.078125 2.859375,7.078125 2.0846813,7.4137721 2.421589,8.578842 3.2558594,8.4492188 3.5230722,8.4106788 3.5991281,8.4282258 3.8066406,8.4179688 L 3.5,10.960938 c -0.051092,0.428277 0.2835304,0.804956 0.7148438,0.804687 l 2.0644531,0 c 0.2327869,-1.77e-4 0.4511024,-0.112973 0.5859375,-0.302734 0.1348351,0.189761 0.3531506,0.302557 0.5859375,0.302734 l 1.1738281,0 c 0.2063877,-2.94e-4 0.4027102,-0.08921 0.5390625,-0.244141 0.1363523,0.154932 0.3326748,0.243847 0.5390625,0.244141 l 2.048828,0 c 0.425136,4.2e-4 0.757925,-0.365921 0.716797,-0.789063 L 12.308594,9.3476562 c 0.417497,-0.1305727 0.779182,-0.3033788 1.041015,-0.59375 0.428059,-0.4574774 0.100574,-1.3884219 -0.664062,-1.1992187 -0.0023,5.281e-4 -0.0032,0.00134 -0.0059,0.00195 -0.0054,0.00122 -0.01322,0.00359 -0.02344,0.00586 -0.02044,0.00455 -0.05135,0.00958 -0.08984,0.017578 -0.07699,0.016006 -0.185713,0.038227 -0.308594,0.058594 -0.03775,0.00626 -0.07119,0.00404 -0.111328,0.00977 L 11.876953,4.8828125 C 11.840411,4.5144532 11.530323,4.2339378 11.160156,4.234375 l -2.253906,0 C 8.600127,4.2342065 8.3274202,4.4277657 8.2265625,4.7167969 L 7.9746094,5.4375 7.7441406,4.7304688 C 7.6475333,4.4346756 7.3717165,4.2345114 7.0605469,4.234375 Z"
     id="path4565"
     inkscape:connector-curvature="0"
     sodipodi:nodetypes="cccccccccccccccccccscccccccccccc" />
  <polygon
     id="polygon5"
     points="0.333,810.667 0.333,-2.333 0.333,-2.333 500.333,-2.333 500.333,810.667 "
     display="none"
     style="display:none;fill:#fcfcfc"
     transform="matrix(0.0112754,0,0,0.0112754,5.1892954,3.9811277)" />
  <path
     id="path63"
     d="m 5.4663771,12.276744 c 0.070922,-0.0195 0.1469184,0.02459 0.1779258,0.08874 0.023453,0.04927 0.045102,0.104185 0.038449,0.159897 -0.033037,3.27e-4 -0.065961,0.0026 -0.098772,0.0055 -0.00282,-0.05197 -0.019281,-0.114783 -0.072614,-0.135981 -0.042959,-0.0056 -0.069005,0.03676 -0.084115,0.07047 -0.022664,0.08953 -0.018717,0.182887 -0.010937,0.274105 0.0097,0.04241 0.029654,0.100013 0.08231,0.09945 0.063819,3.39e-4 0.078251,-0.07836 0.086031,-0.127975 0.033939,0.006 0.067991,0.0115 0.1021551,0.0159 -0.00485,0.06696 -0.022438,0.137673 -0.071035,0.186935 -0.01556,0.0159 -0.0389,0.02403 -0.049724,0.04454 -0.043974,0.0086 -0.088963,0.0058 -0.133388,0.0023 l 0.00237,-0.01015 c -0.085693,-0.03799 -0.119181,-0.136647 -0.132937,-0.222565 -0.010261,-0.105313 -0.010373,-0.214233 0.024017,-0.315486 0.024693,-0.06179 0.070697,-0.123578 0.140266,-0.135643 l 0,0 z"
     display="none"
     inkscape:connector-curvature="0"
     style="display:none;fill:#242021" />
  <path
     id="path65"
     d="m 5.8350714,12.293319 c 0.041832,-0.0021 0.083663,-0.0023 0.1253824,2.25e-4 0.033939,0.180294 0.084566,0.357216 0.1208723,0.537172 l 0.00462,0.0077 c 0.00688,0.04093 0.017477,0.08106 0.026272,0.121661 -0.037998,-1.12e-4 -0.075883,-3.38e-4 -0.1138815,9.02e-4 -0.01432,-0.05299 -0.028189,-0.106214 -0.037434,-0.160347 -0.04792,-0.0013 -0.095954,-4.4e-4 -0.1438741,-0.0013 -0.012967,0.05322 -0.023002,0.107117 -0.034052,0.160787 -0.030895,-1.12e-4 -0.061789,0 -0.092797,3.39e-4 0.00496,-0.05831 0.023791,-0.113995 0.034616,-0.171172 0.035754,-0.165523 0.07859,-0.32958 0.1102734,-0.495892 l 0,0 z"
     display="none"
     inkscape:connector-curvature="0"
     style="display:none;fill:#242021" />
  <path
     id="path67"
     d="m 6.1476367,12.292642 c 0.037885,-9.02e-4 0.075771,-9.02e-4 0.1135433,-6.76e-4 -1.127e-4,0.180293 -3.382e-4,0.360576 2.255e-4,0.540881 0.066187,-3.39e-4 0.1323732,-9.02e-4 0.1984471,3.38e-4 -5.638e-4,0.04205 -4.51e-4,0.084 -3.383e-4,0.12616 -0.1038464,0.0011 -0.2076929,9.02e-4 -0.3115393,1.24e-4 -3.383e-4,-0.222351 2.142e-4,-0.444589 -3.383e-4,-0.666827 l 0,0 z"
     display="none"
     inkscape:connector-curvature="0"
     style="display:none;fill:#242021" />
  <path
     id="path69"
     d="m 7.2499086,12.291402 c 0.040028,5.64e-4 0.080168,0 0.1201957,0.0019 0.039238,0.193598 0.089527,0.384829 0.131584,0.577864 0.00575,0.02481 0.0097,0.0504 0.022776,0.07295 -0.037209,5.64e-4 -0.074305,0.0019 -0.1115137,0.0028 0.038562,4.51e-4 0.077124,1.12e-4 0.1153473,0.0059 -0.038562,0.01297 -0.080168,0.0051 -0.1201958,0.008 -0.013869,-0.05333 -0.026159,-0.107004 -0.037547,-0.160799 -0.047582,-4.51e-4 -0.095277,1.24e-4 -0.1428594,-7.78e-4 -0.01353,0.05311 -0.023002,0.107229 -0.034615,0.1609 -0.030895,-2.25e-4 -0.061676,-2.25e-4 -0.092571,-1.13e-4 0.00406,-0.03676 0.012516,-0.07273 0.021423,-0.108469 0.042294,-0.186845 0.082987,-0.374016 0.1279758,-0.560173 l 0,0 z"
     display="none"
     inkscape:connector-curvature="0"
     style="display:none;fill:#242021" />
  <path
     id="path71"
     d="m 8.4165855,12.292417 c 0.057155,-3.39e-4 0.105752,0.03878 0.14207,0.07938 0.070358,0.102493 0.081059,0.235543 0.062342,0.3554 -0.016789,0.09935 -0.079255,0.208144 -0.1888629,0.220558 l 0.0043,0.0107 c -0.071046,0.0021 -0.1422956,0.0018 -0.2134546,0.0011 -2.255e-4,-0.22235 2.368e-4,-0.444814 -2.255e-4,-0.667278 0.064608,-3.49e-4 0.1292273,-0.001 0.1938354,1.02e-4 l 0,0 z"
     display="none"
     inkscape:connector-curvature="0"
     style="display:none;fill:#242021" />
  <path
     id="path73"
     d="m 8.683587,12.29174 c 0.1114009,0.0011 0.2226891,-0.0011 0.3340901,0.0011 -0.00237,0.04059 0.00564,0.08276 -0.00733,0.122225 -0.072726,-0.0028 -0.1454414,-3.38e-4 -0.218179,-0.0017 -2.368e-4,0.046 -2.368e-4,0.09212 0,0.138248 0.059421,-9.02e-4 0.1187299,0 0.1781513,-7.9e-4 0.00147,0.03867 0.00147,0.07757 9.02e-4,0.116363 -0.059421,-3.39e-4 -0.1189555,4.51e-4 -0.1783768,-6.88e-4 -0.00134,0.05547 -7.893e-4,0.111074 -5.638e-4,0.166549 0.076109,-9.02e-4 0.1522179,-7.9e-4 0.2282141,0 -6.765e-4,0.04216 -5.638e-4,0.08433 -5.638e-4,0.126611 -0.1118519,0.0011 -0.2237039,-9.02e-4 -0.3355671,0.0011 -0.00179,-0.22305 -3.383e-4,-0.446077 -7.78e-4,-0.669105 l 0,0 z"
     display="none"
     inkscape:connector-curvature="0"
     style="display:none;fill:#242021" />
  <path
     id="path75"
     d="m 9.5553896,12.293206 c 0.033601,-0.0015 0.067201,-0.0017 0.1008021,-0.0016 -0.00609,0.03202 -0.013869,0.06382 -0.021987,0.09562 -0.032248,0.140367 -0.067089,0.280194 -0.099224,0.420685 -0.012403,0.04995 -0.025933,0.0999 -0.033713,0.150978 -0.035743,0.0012 -0.071486,0.0011 -0.1071163,0.0014 -0.030556,-0.138575 -0.066863,-0.275909 -0.095266,-0.415048 l -0.0043,-0.0064 c -0.014996,-0.08276 -0.039915,-0.163493 -0.053885,-0.246367 0.037874,-6.88e-4 0.075771,-4.51e-4 0.1137688,-7.9e-4 0.035405,0.160788 0.062691,0.323604 0.1021551,0.48349 0.011839,-0.06978 0.028978,-0.138451 0.04217,-0.207908 0.00428,-0.01872 0.00778,-0.03743 0.011388,-0.05605 0.015898,-0.0725 0.032913,-0.144776 0.045203,-0.217953 l 0,0 z"
     display="none"
     inkscape:connector-curvature="0"
     style="display:none;fill:#242021" />
  <path
     id="path77"
     d="m 9.6955541,12.291853 c 0.037987,0 0.076109,0 0.1142198,3.27e-4 -5.638e-4,0.222576 2.255e-4,0.445153 -4.51e-4,0.66774 -0.03766,0 -0.07532,-1.24e-4 -0.1128668,6.77e-4 -0.0018,-0.222915 -1.127e-4,-0.445829 -9.02e-4,-0.668744 l 0,0 z"
     display="none"
     inkscape:connector-curvature="0"
     style="display:none;fill:#242021" />
  <path
     id="path79"
     d="m 10.075986,12.291966 c 0.06899,-0.0044 0.129667,0.04375 0.166865,0.09776 0.06754,0.121436 0.07701,0.272527 0.03248,0.403434 -0.02435,0.07397 -0.08344,0.14127 -0.16338,0.153571 l 0.0037,0.0107 c -0.07216,0.0043 -0.1443256,0.0017 -0.2164882,0.0031 -0.00124,-0.223027 -4.51e-4,-0.445942 -4.51e-4,-0.668969 0.059083,9.02e-4 0.1181662,0 0.1772492,4.51e-4 l 0,0 z"
     display="none"
     inkscape:connector-curvature="0"
     style="display:none;fill:#242021" />
  <path
     id="path81"
     d="m 10.454152,12.291289 c 0.03958,6.88e-4 0.07927,3.38e-4 0.118966,0.0014 0.04723,0.223377 0.106215,0.44415 0.151204,0.667842 -0.03767,-5.64e-4 -0.07533,-6.88e-4 -0.112878,-1.13e-4 -0.01263,-0.05333 -0.02513,-0.106552 -0.03652,-0.16011 -0.04781,-9.02e-4 -0.09551,-3.39e-4 -0.143209,-7.9e-4 -0.01195,0.05356 -0.02288,0.107354 -0.0345,0.161013 -0.03146,-6.88e-4 -0.06279,-5.64e-4 -0.09415,-4.51e-4 0.04444,-0.224042 0.100351,-0.445942 0.151091,-0.668744 l 0,0 z"
     display="none"
     inkscape:connector-curvature="0"
     style="display:none;fill:#242021" />
  <path
     id="path83"
     d="m 6.4918634,12.292417 c 0.03766,-6.88e-4 0.075433,-6.88e-4 0.1132051,-2.37e-4 2.255e-4,0.222238 -3.383e-4,0.4446 3.382e-4,0.66694 -0.037434,9.02e-4 -0.074869,9.02e-4 -0.112303,0.0014 -0.00202,-0.222678 4.51e-4,-0.445367 -0.00124,-0.668056 l 0,0 z"
     display="none"
     inkscape:connector-curvature="0"
     style="display:none;fill:#242021" />
  <path
     id="path85"
     d="m 6.6947079,12.292078 c 0.063255,1.13e-4 0.1263972,-9.02e-4 0.1896522,3.39e-4 0.054347,-0.0016 0.099787,0.03505 0.1365451,0.07104 0.079717,0.10238 0.082536,0.240955 0.069682,0.364533 -0.019281,0.09573 -0.075432,0.201605 -0.1811957,0.21863 l 0.00396,0.01037 c -0.072388,0.0051 -0.1450017,0.0018 -0.2175025,0.0037 -0.00237,-0.108131 9.02e-4,-0.216262 -0.00351,-0.324281 0.00711,-0.114783 -0.00271,-0.229567 0.00237,-0.344351 l 0,0 z"
     display="none"
     inkscape:connector-curvature="0"
     style="display:none;fill:#242021" />
  <path
     id="path87"
     d="m 7.5566107,12.292417 c 0.076785,0.0016 0.1542475,-0.0058 0.2304692,0.0043 0.07329,0.02424 0.1286523,0.08738 0.1499628,0.1609 0.037998,0.122801 0.039351,0.263506 -0.019619,0.379981 -0.028414,0.05829 -0.085242,0.101141 -0.1496245,0.110623 l 0.00383,0.01037 c -0.071486,0.0019 -0.1430848,0.0016 -0.2146836,0.0011 -4.623e-4,-0.222475 2.142e-4,-0.444938 -3.383e-4,-0.667289 l 0,0 z"
     display="none"
     inkscape:connector-curvature="0"
     style="display:none;fill:#242021" />
  <path
     id="path89"
     d="m 6.802512,12.415319 c 0.038325,-6.77e-4 0.083551,-0.01037 0.1142198,0.01905 0.053558,0.04679 0.060098,0.124593 0.062127,0.191231 -0.0018,0.05897 -0.00722,0.125157 -0.04668,0.172401 -0.030331,0.03518 -0.079717,0.03529 -0.1222254,0.03664 -0.00496,-0.0168 -0.00834,-0.03394 -0.00722,-0.05142 3.382e-4,-0.122676 5.638e-4,-0.245353 -2.255e-4,-0.367916 l 0,0 z"
     display="none"
     inkscape:connector-curvature="0"
     style="display:none;fill:#fcfcfc" />
  <path
     id="path91"
     d="m 7.6702668,12.412838 c 0.038675,0.0027 0.084329,-0.0076 0.1146708,0.02334 0.053671,0.04657 0.056264,0.123793 0.062015,0.189427 -0.00541,0.06258 -0.00789,0.136996 -0.059421,0.181308 -0.03112,0.02999 -0.077462,0.0256 -0.1171514,0.02638 -5.638e-4,-0.140154 -4.623e-4,-0.280307 -1.127e-4,-0.42046 l 0,0 z"
     display="none"
     inkscape:connector-curvature="0"
     style="display:none;fill:#fcfcfc" />
  <path
     id="path93"
     d="m 8.3350643,12.414868 c 0.038562,-1.13e-4 0.084227,-0.0097 0.1145581,0.02087 0.053671,0.04691 0.056377,0.12403 0.062015,0.189991 -0.00541,0.06055 -0.00767,0.129667 -0.052329,0.176009 -0.031684,0.03394 -0.081172,0.03214 -0.1236912,0.03089 -6.652e-4,-0.139262 4.511e-4,-0.278513 -5.525e-4,-0.417764 l 0,0 z"
     display="none"
     inkscape:connector-curvature="0"
     style="display:none;fill:#fcfcfc" />
  <path
     id="path95"
     d="m 10.010014,12.41374 c 0.03698,0.0018 0.08084,-0.0083 0.110386,0.02041 0.05604,0.04973 0.06213,0.131596 0.06202,0.20183 -0.0026,0.05863 -0.0095,0.125721 -0.05401,0.168906 -0.03146,0.02965 -0.07712,0.02875 -0.117376,0.02841 -0.0021,-0.139815 -2.15e-4,-0.279743 -0.001,-0.419558 l 0,0 z"
     display="none"
     inkscape:connector-curvature="0"
     style="display:none;fill:#fcfcfc" />
  <path
     id="path97"
     d="m 7.288369,12.488834 c 0.00474,-0.01161 0.00947,-0.02279 0.014207,-0.03416 0.00992,0.06957 0.02909,0.137334 0.041268,0.206565 0.00259,0.0038 0.00789,0.0115 0.010486,0.01522 -0.034165,0.0052 -0.069333,0.01128 -0.1036097,0.0023 7.893e-4,-0.0054 0.00226,-0.01635 0.00304,-0.02187 l 0.00564,-0.007 c 0.00607,-0.05436 0.022528,-0.106789 0.028967,-0.161024 l 0,0 z"
     display="none"
     inkscape:connector-curvature="0"
     style="display:none;fill:#fcfcfc" />
  <path
     id="path99"
     d="m 10.488993,12.513076 c 0.0032,-0.01769 0.0056,-0.03687 0.01905,-0.04995 0.0089,0.04724 0.01781,0.09471 0.02785,0.141845 0.0062,0.02458 0.01015,0.04984 0.01297,0.07521 -0.02999,-2.26e-4 -0.05998,0.0012 -0.08975,0.0041 0.0045,-0.05807 0.02155,-0.113882 0.02988,-0.171161 l 0,0 z"
     display="none"
     inkscape:connector-curvature="0"
     style="display:none;fill:#fcfcfc" />
  <path
     style="opacity:1;fill:#000080;fill-opacity:1;fill-rule:evenodd;stroke:none;stroke-width:1px;stroke-linecap:butt;stroke-linejoin:miter;stroke-opacity:1"
     d="m 4.9501925,4.9541015 -0.234375,1.9433593 c 0.034388,7.45e-4 2.1233057,0.046253 3.1542969,0.5507813 0.00242,0.00118 0.00539,0.00273 0.00781,0.00391 L 7.0615207,4.9541015 Z m 3.9570313,0 -0.8925781,2.5546875 c 1.0443765,0.4806422 2.5878903,0.8808594 2.5878903,0.8808594 0,0 -0.69051,-0.012353 -2.7617185,-0.6953126 C 6.7756679,7.3431138 4.9572648,7.2783454 4.4542596,7.3291338 3.9512544,7.3799222 3.1533175,7.7373046 3.1533175,7.7373046 3.7475012,7.6516065 4.2896018,7.5988823 4.6201144,7.6845702 l -0.4042969,3.3613288 2.0644532,0 0.21875,-2.6914069 0.09375,0 0.859375,2.6914069 1.1738281,0 0.765625,-2.3925788 0.140625,0 0.171875,2.3925788 2.0488282,0 -0.214844,-2.1953132 0.01563,-0.03125 c 0.677904,-0.1263351 1.086683,-0.31826 1.292969,-0.5625 4.31e-4,-4.311e-4 -0.811428,0.1918114 -1.34961,0.1660157 l -0.33789,-3.4687501 z"
     id="path4540"
     inkscape:connector-curvature="0"
     sodipodi:nodetypes="ccsccccccsccccccccccccccccccc" />
</svg>

<svg width="16" height="16" viewBox="0 0 16 16" fill="none" xmlns="http://www.w3.org/2000/svg">
<path fill-rule="evenodd" clip-rule="evenodd" d="M4.94922 4.23438C4.58514 4.23406 4.27822 4.50577 4.23437 4.86719L4.00976 6.72852C3.46938 6.86989 2.85937 7.07813 2.85937 7.07813C2.08468 7.41377 2.42159 8.57884 3.25586 8.44922C3.52307 8.41068 3.59913 8.42823 3.80664 8.41797L3.5 10.9609C3.44891 11.3892 3.78353 11.7659 4.21484 11.7656H6.27929C6.51208 11.7654 6.7304 11.6527 6.86523 11.4629C7.00007 11.6527 7.21838 11.7654 7.45117 11.7656H8.625C8.83138 11.7653 9.02771 11.6764 9.16406 11.5215C9.30041 11.6764 9.49673 11.7653 9.70312 11.7656H11.752C12.1771 11.766 12.5099 11.3997 12.4687 10.9766L12.3086 9.34766C12.7261 9.21708 13.0878 9.04428 13.3496 8.75391C13.7777 8.29643 13.4502 7.36548 12.6855 7.55469C12.6832 7.55522 12.6823 7.55603 12.6796 7.55664C12.6742 7.55786 12.6664 7.56023 12.6562 7.5625C12.6358 7.56705 12.6049 7.57208 12.5664 7.58008C12.4894 7.59608 12.3807 7.6183 12.2578 7.63867C12.22 7.64493 12.1866 7.64271 12.1464 7.64844L11.877 4.88281C11.8404 4.51445 11.5303 4.23394 11.1602 4.23438H8.90625C8.60012 4.23421 8.32742 4.42777 8.22656 4.7168L7.97461 5.4375L7.74414 4.73047C7.64753 4.43468 7.37171 4.23451 7.06054 4.23438H4.94922Z" fill="#FEFEFE"/>
<path fill-rule="evenodd" clip-rule="evenodd" d="M4.9502 4.9541L4.71582 6.89746C4.75021 6.89821 6.83913 6.94371 7.87012 7.44824C7.87254 7.44942 7.87551 7.45097 7.87793 7.45215L7.06152 4.9541H4.9502ZM8.90723 4.9541L8.01465 7.50879C9.05902 7.98943 10.6025 8.38965 10.6025 8.38965C10.6025 8.38965 9.91203 8.3773 7.84082 7.69434C6.77567 7.34311 4.95727 7.27835 4.45426 7.32913C3.95126 7.37992 3.15332 7.7373 3.15332 7.7373C3.7475 7.65161 4.2896 7.59888 4.62012 7.68457L4.21582 11.0459H6.28027L6.49902 8.35449H6.59277L7.45215 11.0459H8.62598L9.3916 8.65332H9.53223L9.7041 11.0459H11.7529L11.5381 8.85059L11.5537 8.81934C12.2316 8.693 12.6404 8.50108 12.8467 8.25684C12.8471 8.2564 12.0353 8.44865 11.4971 8.42285L11.1592 4.9541H8.90723Z" fill="#000080"/>
</svg>
